!!!!SEGMENT: pl-kk--kk-i-38--008_lasso-orlando-di--cantate-domino.krn
!!!cenid: 16xx:1258
!!!COM: Lasso, Orlando di
!!!COM-rismID: pe506
!!!CDT: ~1532-1594/06/14
!!!CNT: French-Flemish
!!!OTL: Cantate Domino
!!!PDT:
!!!AGN: Sacred
!!!SMS-siglum: PL-Kk
!!!SMS-shelfmark: Kk.I.38
!!!SMS-shelfwork: 008 W
!!!SMS-variant:
!!!SMS-altvar:
!!!NIFC-rismSourceID: 1001154389
!!!NIFC-islandoraID: pl-kk:2701
!!!URL-pdf-islandora: https://repozytorium.nifc.pl/islandora/object/pl-kk%3A2701/datastream/PDF/view
!!!URL-scan: https://polish.musicsources.pl/pl/lokalizacje/galeria/rekopisy/5992 @EN{Scan on Polish Music Sources Website} @PL{Skany w portalu Dziedzictwo Muzyki Polskiej w otwartym dostępie}
!!!ONB-nifc: Lib. 2. Fol. 23. 2da parte (jeśli występuje), należy do utworu tytułowego
!!!AIN: 1 empty
!!!key:
**kern	**text
*Iempty	*
*I"Baſso Ripieno.	*
*I'B rip	*
*clefC4	*
*k[b-]	*
*g:	*
*M2/1	*
*met(C|)	*
=1-	=1-
00r	.
=2-	=2-
.	.
=3-	=3-
00r	.
=4-	=4-
.	.
=5-	=5-
00r	.
=6-	=6-
.	.
=7-	=7-
00r	.
=8-	=8-
.	.
=9-	=9-
!LO:TX:t=P:problem=kreska pseudotaktowa	!
0r	.
=10-	=10-
1G	Qui-
*2\right	*
2d\	-a
1d\	mi-
=11-	=11-
.	.
2c#X\	-ra-
2d\	-bi-
!LO:TX:t=P:problem=kreska pseudotaktowa	!
2B-\	-li-
=12-	=12-
!LO:TX:t=P:global:problem=oddech jako rozdzielacz słów	!
2A,<\	-a
2.B-\	fe-
8A/L	.
8G/J	.
4F/	.
!LO:TX:t=P:problem=kreska pseudotaktowa	!
4G/	.
=13-	=13-
4A/	.
4D/	.
2B-\	.
1A	-cit.
=14-	=14-
!LO:TX:t=P:problem=kreska pseudotaktowa	!
1D	.
00r	.
=15-	=15-
.	.
=16-	=16-
.	.
!LO:TX:t=P:problem=kreska pseudotaktowa	!
00r	.
=17-	=17-
.	.
=18-	=18-
.	.
1A	et
=19-	=19-
2.d\	bra-
4d\	-chi-
2B-,<\	-um
1B-\	San-
=20-	=20-
.	.
!LO:TX:t=P:problem=kreska pseudotaktowa	!
2B-\	-ctu(m)
1d	e-
=21-	=21-
!LO:TX:t=P:problem=kreska pseudotaktowa	!
1A	-jus
2r	.
2d\	et
=22-	=22-
2.B-\	bra-
4A\	-chi-
!LO:TX:t=P:problem=kreska pseudotaktowa	!
1G	-u(m)
=23-	=23-
2.D/	san-
4E/	.
!LO:LB:g=original	!
2F#X/	-ctum
2G/	.
=24-	=24-
1D	e-
0G	-jus.
=25-	=25-
!LO:TX:t=P:problem=kreska pseudotaktowa	!
.	.
00r	.
=26-	=26-
.	.
=27-	=27-
.	.
00r	.
=28-	=28-
.	.
=29-	=29-
.	.
0r	.
=30-	=30-
.	.
!LO:TX:t=P:problem=kreska pseudotaktowa	!
1r	.
=31-	=31-
1.G	in
2F#X/	con-
=32-	=32-
2G/	-ſpe-
!LO:TX:t=P:problem=kreska pseudotaktowa	!
2C/	-ctu(m)
2.G/	gen-
4G/	-ti-
=33-	=33-
!LO:TX:t=P:problem=kreska pseudotaktowa	!
0D	-um
=34-	=34-
1G	re-
1A	-ve-
=35-	=35-
1B-	-la-
!LO:TX:t=P:problem=kreska pseudotaktowa	!
1A	-vit
=36-	=36-
1cny	Ju-
2.d\	-sti-
4d\	-ti-
=37-	=37-
4A\	-am
4B-\	.
4c\	.
!LO:TX:t=P:problem=kreska pseudotaktowa	!
4A\	.
2d,<\	.
2d\	su-
=38-	=38-
!LO:TX:t=P:problem=kreska pseudotaktowa	!
1A	-am.
1r	.
=39-	=39-
2.G/	re-
4G/	-cor-
2G/	-da-
2G/	-t(us)
=40-	=40-
!LO:TX:t=P:problem=kreska pseudotaktowa	!
1D,<	est
*	*ij
2.d\	re-
4d\	-cor-
=41-	=41-
2d\	-da-
2d\	-t(us)
!LO:TX:t=P:problem=kreska pseudotaktowa	!
1G,<	est
*	*Xij
=42-	=42-
!LO:LB:g=original	!
0r	.
=43-	=43-
!LO:TX:t=P:problem=kreska pseudotaktowa	!
1r	.
2r	.
2A/	mi-
=44-	=44-
2G/	-ſe-
2E/	-ri-
2.Fny/	-cor-
!LO:TX:t=P:problem=kreska pseudotaktowa	!
4F/	-di-
=45-	=45-
2G,</	-a
2E-X/	su-
2D,</	-ae
2D/	et
=46-	=46-
2G/	Ve-
!LO:TX:t=P:problem=kreska pseudotaktowa	!
2G/	-ri-
(2.d\	-ta-
4c\)	.
=47-	=47-
1B-	-tis
1F,<	.
=48-	=48-
1G	su-
1F,<	-ae
=49-	=49-
1B-	do-
2G/	-mi-
1G/	-ni
=50-	=50-
.	.
!LO:TX:t=P:problem=fragment zapisany repetycją. Powtórka ma być rozpisana i nuty do ukrycia z notatką "fragment nie mieści się w jednym takcie" (ustalone z JI)	!
1B-yy	do-
2G/yy	-mi-
=51-	=51-
1Gyy	-ni
!LO:TX:t=P:tekst:problem= znak powtórki poprawiony na Isràél	!
2c\	I-
2c\	-srà-
=52-	=52-
!LO:TX:t=P:problem=kreska pseudotaktowa	!
1c	-él
1F	do-
=53-	=53-
2D/	-mi-
2D/	-ni
2.G/	I-
4G/	-sra-
=54-	=54-
2C,</	-el
1c	do-
2A\	-mi-
=55-	=55-
!LO:TX:t=P:problem=kreska pseudotaktowa	!
1A	-ni
2.F/	I-
4D/	.
=56-	=56-
2A\	.
2A\	-srà-
!LO:N:vis=0	!
1D;	-él.
=57||-	=57||-
*k[b-]	*
*M2/1	*
*met(c|)	*
!LO:TX:a:B:t=2da parte	!
!LO:LB:g=original	!
2r	.
1d	Vi-
2.B-\	-de-
=58-	=58-
.	.
4A/	.
4G/	.
!LO:TX:t=P:problem=kreska pseudotaktowa	!
4F/	.
(1G	-runt
=59-	=59-
4G/	.
4F,</)	.
2E-X/	vi-
1E-	-de-
=60-	=60-
!LO:TX:t=P:problem=kreska pseudotaktowa	!
1D,<	-runt
1G	o-
=61-	=61-
!LO:TX:t=P:problem=kreska pseudotaktowa	!
1C	-mnes
2.G/	ter-
4G/	-mi-
=62-	=62-
2F,</	-ni
2.D/	Ter-
4Eny/	.
4F/	.
!LO:TX:t=P:problem=kreska pseudotaktowa	!
4G/	.
=63-	=63-
1A	.
2D,</	-rae
2d\	Sa-
=64-	=64-
2c#X\	-lu-
1d	-ta-
*custos:A	*
!LO:TX:t=P:problem=kreska pseudotaktowa	!
2B-\	-re
=65-	=65-
!LO:LB:g=original	!
2A/	De-
!LO:TX:t=P:problem=kreska pseudotaktowa	!
2D,</	-i
2G/	no-
!LO:TX:t=P:problem=kreska pseudotaktowa	!
2D/	-stri
=66-	=66-
1r	.
1G	Sa-
=67-	=67-
2F#X/	-lu-
2.G/	-ta-
4F#/	.
!LO:TX:t=P:problem=kreska pseudotaktowa	!
2E-X/	.
=68-	=68-
2D,</	-re
2G/	De-
2A\	-i
2d\	no-
=69-	=69-
!LO:TX:t=P:problem=kreska pseudotaktowa	!
1D	-stri,
1r	.
=70-	=70-
1d	Sa-
2c#X\	-lu-
1d\	-ta-
=71-	=71-
.	.
!LO:TX:t=P:problem=kreska pseudotaktowa	!
2D/	-re
2A\	De-
2F#X/	-i
=72-	=72-
0G	no-
=73-	=73-
*lig	*
1D	-stri
!LO:TX:t=P:problem=kreska pseudotaktowa	!
1G	.
*Xlig	*
=74-	=74-
*M3/2	*
1Fny	Ju-
!LO:TX:t=P:problem=kreska pseudotaktowa	!
2F/	-bi-
=75-	=75-
1F	-la-
2F/	-te
=76-	=76-
*M2/1	*
*met(C|)	*
1G	De-
!LO:TX:t=P:problem=kreska pseudotaktowa	!
1G	-o
=77-	=77-
*M3/2	*
!LO:LB:g=original	!
1F	Ju-
!LO:TX:t=P:problem=kreska pseudotaktowa	!
2F/	-bi-
=78-	=78-
1F	-la-
2F/	-te
=79-	=79-
*M2/1	*
*met(C|)	*
1G	De-
2D,</	-o
1d\	o-
=80-	=80-
.	.
!LO:TX:t=P:problem=kreska pseudotaktowa	!
2B-\	-mnis
2.d\	.
4cny\	.
=81-	=81-
1B-	Ter-
!LO:TX:t=P:problem=kreska pseudotaktowa	!
1F	-ra
=82-	=82-
2r	.
2B-\	can-
4B-\	-ta-
4A\	.
4G/	.
4F/	.
=83-	=83-
4G/	.
4A/	.
2B-\	.
!LO:TX:t=P:problem=kreska pseudotaktowa	!
1E-X	-te
=84-	=84-
1r	.
2r	.
!LO:TX:t=P:problem=kreska pseudotaktowa	!
2F/	can-
=85-	=85-
4F/	-ta-
4Eny/	.
4D/	.
4C/	.
2D/	.
!LO:TX:t=P:problem=kreska pseudotaktowa	!
2BB-/	-te
=86-	=86-
2B-\	can-
4B-\	-ta-
4A\	.
4G/	.
4F/	.
4G/	.
4A/	.
=87-	=87-
4B-\	.
4A\	.
4G/	.
4F/	.
1G	-te
=88-	=88-
!LO:TX:t=P:problem=kreska pseudotaktowa	!
1F	.
!LO:LB:g=original	!
2r	.
2C/	et
=89-	=89-
2c\	e-
2c\	-xul-
1c	-ta-
=90-	=90-
!LO:TX:t=P:problem=kreska pseudotaktowa	!
1G	-te
2r	.
*	*ij
2d\	et
=91-	=91-
2d\	e-
!LO:TX:t=P:problem=kreska pseudotaktowa	!
2D/	-xul-
*lig	*
1G	-ta-
=92-	=92-
1A	.
*Xlig	*
!LO:TX:t=P:problem=kreska pseudotaktowa	!
1D	-te
*	*Xij
=93-	=93-
0r	.
=94-	=94-
1r	.
2r	.
!LO:TX:t=P:problem=kreska pseudotaktowa	!
2D/	et
=95-	=95-
2G/	psal-
2G/	-li-
2C,</	-te
*	*ij
!LO:TX:t=P:problem=kreska pseudotaktowa	!
2F/	et
=96-	=96-
2F/	psal-
2G/	-li-
!LO:TX:t=P:problem=kreska pseudotaktowa	!
1D	-te
*	*Xij
=97-	=97-
2r	.
!LO:TX:t=P:problem=kreska pseudotaktowa	!
2d\	et
4B-\	psal-
4c\	.
4d\	.
4B-\	.
=98-	=98-
4e-X\	.
4d\	.
4c\	.
!LO:TX:t=P:problem=kreska pseudotaktowa	!
4B-\	.
4c\	.
4B-\	.
4B-\	.
8A\L	.
8G\J	.
=99-	=99-
2.A/	-li-
4A/	-te
!LO:TX:t=P:problem=kreska pseudotaktowa	!
0G	.
=100-	=100-
.	.
!LO:TX:t=P:problem=kreska pseudotaktowa	!
!LO:LB:g=original	!
0r	.
=101-	=101-
.	.
1D	et
=102-	=102-
2G/	psal-
2G/	-li-
2C,</	-te
*	*ij
!LO:TX:t=P:problem=kreska pseudotaktowa	!
2F/	et
=103-	=103-
2F/	psal-
2G/	-li-
!LO:TX:t=P:problem=kreska pseudotaktowa	!
1D	-te
*	*Xij
=104-	=104-
1G	et
2.C/	psal-
4C/	-li-
=105-	=105-
0G;	-te
=-	=-
*-	*-
!!!RDF**kern: < = below
!!!RDF**kern: > = above
!!!ENC: Marta Chmielewska
!!!END: 2021-07-29
!!!ENC: Katarzyna Serwa
!!!END: 2021-07-03
